X: 1134
T: The 10th Highland Light Infantry's Crossing of the Rhine
C: Pipe Major Donald Shaw Ramsay
M: 6/8
L: 1/8
R: jig
K: D Major
|: A |
d<fA d2 A | f>ga fed | c<eA c2 e | e>fg fed |
d<fA d2 A | f>ga fed | c>ea g>ec | d3- d2 :|
|: g | 
a<Af d2 A | f<af fed | c<eA c2 e | e>fg fed |
a<Af d2 A | f<af fed | c>ea g>ec | d3- d2 :|
|: A | 
d3 A>df | f<af fed | c<eA c2 e | e>fg fed |
d3 A>df | f<af fed | c>ea g>ec | d3- d2 :|
|: g |
a<Aa A>df | f<af fed | c<eA c2 e | e>fg fed |
a<Aa A>df | f<af fed | c>ea g>ec | d3- d2 :|
